X:1
T:Schultz, 887.887
T:Schultz, 887.887
T:Joshua F. Drake, 2006
T:Public Domain Courtesy of the Cyber Hymnal™
C:Joshua F. Drake, 2006
Z:Public Domain
Z:Courtesy of the Cyber Hymnal™
%%score ( 1 2 ) ( 3 4 )
L:1/8
Q:1/4=130
M:4/4
K:F
V:1 treble 
V:2 treble 
V:3 bass 
V:4 bass 
V:1
 [CF]4 [DF]2 [EG]2 | [FA]4 [DF]4 | [Ec]2 [Gc]2 [FA]4- | [FA]2 [FA]2 [EG]2 [CF]2 | [A,D]2 C2 [CF]4 | %5
 [DF]4 [CE]4- | [CE]2 C2 [CF]2 [EG]2 |[M:3/2] [FA]2 [FA]2 G8 |[M:4/4] [CF]4 [DF]2 [EG]2 | %9
 [FA]4 [DF]4 | [Ec]2 [Gc]2 [FA]4- | [FA]2 [CF]2 [FA]2 [Gc]2 | [Bd]4 [Fc]4 | [FB]2 [FA]2 [DG]4- | %14
 [DG]2 [CF]2 [EG]2 [FA]2 | [FG]2 [EG]2 [CF]4 |] %16
V:2
 x8 | x8 | x8 | x8 | x2 C2 x4 | x8 | x2 C2 x4 |[M:3/2] x4 (F4 E4) |[M:4/4] x8 | x8 | x8 | x8 | x8 | %13
 x8 | x8 | x8 |] %16
V:3
 [F,A,]4 [D,A,]2 [C,C]2 | [F,C]4 [F,A,]4 | [E,G,]2 [E,C]2 [F,C]4- | [F,C]2 [F,C]2 [C,C]2 [F,A,]2 | %4
 [F,A,]2 [E,G,]2 [F,A,]4 | [D,A,]4 [E,G,]4- | [E,G,]2 [E,G,]2 [F,A,]2 [C,C]2 | %7
[M:3/2] [F,C]2 [F,C]2 [C,C]8 |[M:4/4] [F,A,]4 [D,A,]2 [C,C]2 | [F,C]4 [F,A,]4 | %10
 [E,G,]2 [E,C]2 [F,C]4- | [F,C]2 [F,A,]2 [F,C]2 [E,C]2 | [D,F,]4 [F,A,]4 | [D,D]2 [F,C]2 [G,B,]4- | %14
 [G,B,]2 A,2 [G,C]2 [F,C]2 | [C,C]2 [C,C]2 [F,A,]4 |] %16
V:4
 x8 | x8 | x8 | x8 | x8 | x8 | x8 |[M:3/2] x12 |[M:4/4] x8 | x8 | x8 | x8 | x8 | x8 | x2 A,2 x4 | %15
 x8 |] %16

